X:1
T:Holy Place, 77.77.87.87
T:Holy Place, 77.77.87.87
T:John David Brunk, 1911
T:Public Domain Courtesy of the Cyber Hymnal™
C:John David Brunk, 1911
Z:Public Domain
Z:Courtesy of the Cyber Hymnal™
%%score ( 1 2 ) ( 3 4 )
L:1/8
M:3/4
K:Eb
V:1 treble 
V:2 treble 
V:3 bass 
V:4 bass 
V:1
 ([EG]2 _G2) [E=G]2 | [Ec]4 [EB]2 | [DB]4 [DA]2 | [EG]6 | [CF]4 [CF]2 | [EF]4 [EF]2 | [Ec]4 [Ed]2 | %7
 [DB]6 | ([EG]2 _G2) [E=G]2 | [Ec]4 [EB]2 | ([DB]2 c2) [Fd]2 | [Ee]6 | ([Ee]2 d2) [Ec]2 | %13
 [EB]2 z2 [DA]2 | [EG]4 [DF]2 | [B,E]6 | [DF]4 [DF]2 | [EF]4 [EF]2 | [DF]4 [DF]2 | [DG]4 [DG]2 | %20
 [EG]4 [EG]2 | [EA]4 [FA]2 | [F=A]4 [EA]2 | [DB]6 | ([EG]2 _G2) [E=G]2 | [Ec]4 [EB]2 | %26
 ([DB]2 c2) [Fd]2 | [Ee]4 [Ee]2 | ([Ee]2 d2) [Ec]2 | [EB]2 z2 [DA]2 | [EG]4 [DF]2 | [B,E]6 |] %32
V:2
 x2 _G2 x2 | x6 | x6 | x6 | x6 | x6 | x6 | x6 | x2 _G2 x2 | x6 | x2 c2 x2 | x6 | x2 d2 x2 | x6 | %14
 x6 | x6 | x6 | x6 | x6 | x6 | x6 | x6 | x6 | x6 | x2 _G2 x2 | x6 | x6 | x6 | x2 d2 x2 | x6 | x6 | %31
 x6 |] %32
V:3
 ([E,B,]2 [_G,=A,]2) [E,B,]2 | [E,A,]4 [E,G,]2 | [B,,F,]4 [B,,B,]2 | [E,B,]6 | [F,A,]4 [F,A,]2 | %5
 [F,=A,]4 [F,A,]2 | [F,=A,]4 [F,A,]2 | [B,,B,]6 | ([E,B,]2 [_G,,=A,]2) [E,B,]2 | [E,A,]4 [G,B,]2 | %10
 [F,A,]4 [B,,A,]2 | [C,G,]6 | ([A,,C]2 [D,D]2) [A,,A,]2 | [B,,G,]2 [E,B,]2 [B,,F,]2 | %14
 [B,,B,]4 [B,,A,]2 | [E,G,]6 | [B,,B,]4 [F,B,]2 | [F,=A,]4 [F,A,]2 | [F,B,]4 [A,B,]2 | %19
 [G,=B,]4 [G,B,]2 | [E,C]4 [B,C]2 | [A,C]4 [A,C]2 | [F,C]4 [F,C]2 | [B,,B,]6 | %24
 ([E,B,]2 [_G,=A,]2) [E,B,]2 | A,4 [G,B,]2 | [F,A,]4 [B,,A,]2 | [C,G,]4 [C,G,]2 | %28
 ([A,,C]2 B,2) [A,,A,]2 | [B,,G,]2 B,2 [B,,F,]2 | [B,,B,]4 [B,,A,]2 | [G,,E,]6 |] %32
V:4
 x6 | x6 | x6 | x6 | x6 | x6 | x6 | x6 | x6 | x6 | x6 | x6 | x6 | x6 | x6 | x6 | x6 | x6 | x6 | %19
 x6 | x6 | x6 | x6 | x6 | x6 | x6 | x6 | x6 | x2 B,2 x2 | x6 | x6 | x6 |] %32

